X: 45
T: No_50_Opening_Song_of_Peyote_Ceremony.krn
N: Derived from No_50_Opening_Song_of_Peyote_Ceremony.krn
%%abc-version 2.0
%%abcx-abcm2ps-target-version 5.9.1 (29 Sep 2008)
%%abc-creator hum2abc beta
%%abcx-conversion-date 2019/03/15 08:27:55
%%humdrum-veritas 963037634
%%humdrum-veritas-data 856366389
%%linebreak <none>
%%barnumbers 0
L: 1/8
M: 3/4
K: D clef=bass
[K:clef=bass][M:3/4]z4D3/A,/ | 
D2D2D2 | 
[M:2/4]A,D DA, | 
[M:3/4]A,2(A,F,/) z/ D3/A,/ | 
D2D2D2 | 
[M:2/4]A,D DA, | 
A,A, A, z | 
B,B, B,B, | 
B,D A,F, | 
(F,3/D,/) D,D, | 
[M:3/4]D,2D,D, D, z | 
[M:2/4](F,3/D,/) D,D, | 
D,2D,2 | 
[M:3/4]A,,D, D,D,D,2 | 
D,2D,2D,2 | 
D,2z2A,2 | 
A,2A,2A,2 | 
[M:2/4]E,A, A,E, | 
E,E, E, z | 
[M:3/4]F,E, D,E, E,D, | 
[M:2/4]D,D, D, z | 
(E,3/D,/) D,D, | 
D,2D,2 | 
[M:3/4]A,,D, D,D, D, z | 
D,2D,2D,2 | 
D,2z4 |]  



